public/img/field-12.svg

<svg width="67" height="64" viewBox="0 0 67 64" fill="none" xmlns="http://www.w3.org/2000/svg">
<rect x="67" y="53" width="10" height="57" transform="rotate(90 67 53)" fill="#715F7A"/>
<g clip-path="url(#clip0)">
<path d="M63.8532 54.0918C63.5469 52.8947 62.7929 51.8878 61.7314 51.2574C60.7079 50.6478 59.4843 50.4639 58.3339 50.7244C58.1415 50.5768 57.9433 50.4432 57.7412 50.3247C54.8654 48.6197 51.1371 49.5702 49.4299 52.445C48.153 54.6001 48.3474 57.3269 49.8614 59.2718C49.8244 60.9293 50.6736 62.4859 52.1304 63.3514C52.8689 63.79 53.6811 63.9985 54.4837 63.9985C56.0645 63.9984 57.6073 63.1891 58.4708 61.7349C58.8162 61.157 59.0274 60.5199 59.0964 59.8594C60.794 59.9583 62.451 59.1094 63.3497 57.5985C63.9809 56.5355 64.1597 55.29 63.8532 54.0918ZM61.2004 56.3215C60.7065 57.1519 59.7167 57.5494 58.7938 57.2878C58.3029 57.1486 57.7763 57.3222 57.4642 57.726C57.3369 57.8905 57.1934 58.0441 57.0252 58.1956C56.7378 58.4544 56.5864 58.8316 56.6152 59.2173C56.6477 59.6531 56.5472 60.0803 56.3229 60.4555C55.723 61.4658 54.4146 61.8005 53.407 61.2021C52.6545 60.7549 52.2535 59.9079 52.3854 59.0441C52.4438 58.6624 52.3224 58.275 52.0565 57.9949C50.9659 56.8454 50.77 55.0873 51.58 53.7204C52.2448 52.6008 53.4318 51.9778 54.6508 51.9778C55.271 51.9778 55.8997 52.1392 56.4718 52.4784C56.7138 52.6202 56.9467 52.8008 57.164 53.0155C57.5239 53.3708 58.0623 53.4743 58.5284 53.2775C59.1638 53.0093 59.865 53.0558 60.4535 53.4061C60.943 53.6969 61.2902 54.1604 61.4312 54.7114C61.5722 55.2618 61.4899 55.8339 61.2004 56.3215Z" fill="#5A2E91"/>
<path d="M52.6859 37.9635C52.6463 38.2365 52.6261 38.514 52.6261 38.7945C52.6261 41.9307 55.1778 44.4824 58.314 44.4824C61.4484 44.4824 63.9983 41.9307 63.9983 38.7945C63.9983 36.6417 62.8025 34.7157 60.943 33.7484C60.7579 31.1409 58.5771 29.0761 55.9233 29.0761C53.1483 29.0761 50.8906 31.3337 50.8906 34.1087C50.8906 35.6114 51.5605 37.0177 52.6859 37.9635ZM55.9233 31.576C57.3198 31.576 58.4559 32.7121 58.4559 34.1086C58.4559 34.2071 58.4493 34.3122 58.4364 34.4214C58.3659 35.0142 58.7244 35.5741 59.2923 35.7582C60.6118 36.1857 61.4984 37.406 61.4984 38.7945C61.4984 40.5524 60.07 41.9824 58.3141 41.9824C56.5564 41.9824 55.1263 40.5522 55.1263 38.7945C55.1263 38.4522 55.178 38.121 55.28 37.8099C55.467 37.2397 55.2225 36.617 54.6974 36.3265C53.8914 35.8806 53.3906 35.0309 53.3906 34.1086C53.3905 32.7122 54.5268 31.576 55.9233 31.576Z" fill="#5A2E91"/>
<path d="M45.9787 23.499C46.1777 22.4147 46.2995 20.5527 45.3479 18.8312C44.6899 17.6409 43.6518 16.7432 42.2539 16.1529C42.2629 16.0019 42.2674 15.8503 42.2674 15.6985C42.2674 13.0839 40.9394 10.6836 38.7615 9.28852C38.0972 5.71177 34.9892 3.09002 31.281 3.09002C31.0213 3.09002 30.7617 3.10327 30.504 3.12952C28.7938 1.15815 26.2887 0.00164795 23.6592 0.00164795C21.033 0.00164795 18.5282 1.15827 16.815 3.12977C16.5572 3.1034 16.2973 3.09015 16.0372 3.09015C12.329 3.09015 9.22104 5.71202 8.55667 9.28877C6.38092 10.683 5.05429 13.083 5.05429 15.6986C5.05429 15.851 5.05854 16.0023 5.06717 16.152C3.65942 16.7462 2.61642 17.6522 1.95917 18.8547C1.01892 20.575 1.15117 22.4454 1.34279 23.4981C1.32892 23.5134 1.31404 23.5279 1.30042 23.5433C0.318042 24.6488 -0.131833 26.028 0.0335424 27.426L3.85867 60.0174C4.12879 62.3239 5.86192 63.998 7.97967 63.998H39.3423C41.4579 63.998 43.1895 62.324 43.4597 60.0177L44.7169 49.3002C44.7974 48.6145 44.3068 47.9935 43.6212 47.9132C42.9354 47.8319 42.3145 48.3233 42.2342 49.0089L40.9769 59.7265C40.8769 60.5798 40.3229 61.498 39.3424 61.498H35.668L36.8187 46.7635H37.5078C38.5544 46.7635 39.4059 45.9137 39.4059 44.8689V36.9919C39.4059 36.0212 38.673 35.2195 37.7318 35.1082L38.3359 27.3777C38.3372 27.361 38.3367 27.3447 38.3373 27.328C38.3379 27.312 38.3397 27.2964 38.3397 27.2802C38.3397 25.5008 39.7889 24.0533 41.57 24.0533C42.5454 24.0533 43.5095 24.4825 44.1494 25.2014C44.505 25.601 44.9074 26.2609 44.8054 27.1342L43.5445 37.8623C43.4639 38.5479 43.9544 39.169 44.64 39.2497C45.325 39.3304 45.9468 38.8397 46.0273 38.1542L47.2883 27.4252C47.452 26.0248 47.0004 24.6448 46.0168 23.5394C46.0045 23.5258 45.9912 23.5128 45.9787 23.499ZM7.97967 61.4979C6.99679 61.4979 6.44167 60.5797 6.34167 59.7263L2.51629 27.1334C2.41317 26.2618 2.81429 25.603 3.16904 25.2038C3.80917 24.4834 4.77467 24.0534 5.75179 24.0534C7.53117 24.0534 8.97867 25.5009 8.97867 27.2803C8.97867 27.2965 8.98054 27.3123 8.98104 27.3284C8.98167 27.3449 8.98104 27.3612 8.98242 27.3778L9.58667 35.1084C8.64742 35.22 7.91617 36.0214 7.91617 36.992V44.869C7.91617 45.9138 8.76604 46.7637 9.81079 46.7637H10.5002L11.6539 61.4982H7.97967V61.4979ZM14.1614 61.4979L13.0077 46.7634H18.4202L18.7895 61.4979H14.1614ZM26.028 61.4979H21.2904L20.9209 46.7634H26.3974L26.028 61.4979ZM33.1603 61.4979H28.5288L28.8983 46.7634H34.311L33.1603 61.4979ZM36.9058 44.2635H10.4162V37.5937H36.9059V44.2635H36.9058ZM18.1274 35.0938H12.0932L11.4797 27.2433C11.4997 25.481 12.9387 24.0534 14.7055 24.0534C16.4849 24.0534 17.9324 25.5009 17.9324 27.2803C17.9324 27.2854 17.9332 27.2904 17.9332 27.2957C17.9333 27.301 17.9327 27.3062 17.9328 27.3115L18.1274 35.0938ZM20.4325 27.272C20.437 25.4965 21.8827 24.0534 23.6592 24.0534C25.4357 24.0534 26.8814 25.4965 26.8859 27.272L26.6903 35.0938H20.6282L20.4325 27.272ZM29.3853 27.2957C29.3853 27.2905 29.386 27.2855 29.386 27.2803C29.386 25.5009 30.8335 24.0534 32.6128 24.0534C34.3797 24.0534 35.8187 25.481 35.8387 27.2433L35.2252 35.0938H29.191L29.3857 27.3115C29.3858 27.3062 29.3852 27.3009 29.3853 27.2957ZM41.57 21.5535C39.7588 21.5535 38.1409 22.3979 37.09 23.7133C36.0399 22.3979 34.423 21.5535 32.6128 21.5535C30.8028 21.5535 29.1863 22.3977 28.136 23.7128C27.0858 22.3977 25.4692 21.5535 23.6592 21.5535C21.8492 21.5535 20.2325 22.3977 19.1823 23.7128C18.132 22.3977 16.5154 21.5535 14.7054 21.5535C12.8954 21.5535 11.2788 22.3977 10.2285 23.7128C9.17829 22.3977 7.56167 21.5535 5.75167 21.5535C5.05267 21.5535 4.35692 21.684 3.70242 21.9242C3.71017 21.3358 3.81792 20.666 4.15267 20.0536C4.62792 19.1843 5.51154 18.5594 6.77917 18.1967C7.41029 18.016 7.79417 17.3779 7.65804 16.7358C7.58917 16.4105 7.55417 16.0615 7.55417 15.6986C7.55417 13.7931 8.60254 12.0578 10.2899 11.1698C10.6617 10.9741 10.9102 10.605 10.9517 10.187C11.2118 7.56627 13.3979 5.59002 16.037 5.59002C16.3904 5.59002 16.7425 5.6264 17.0835 5.6979C17.5647 5.79915 18.0613 5.60815 18.351 5.21015C19.5854 3.51415 21.5695 2.50165 23.6589 2.50165C25.7513 2.50165 27.7353 3.51377 28.966 5.20902C29.2555 5.60777 29.7525 5.79915 30.2344 5.69802C30.5754 5.6264 30.9275 5.59015 31.2809 5.59015C33.9199 5.59015 36.1062 7.56652 36.3663 10.1873C36.4078 10.6051 36.6564 10.9744 37.028 11.17C38.7177 12.0591 39.7674 13.7945 39.7674 15.6989C39.7674 16.0508 39.7313 16.3997 39.66 16.7359C39.5238 17.3783 39.9078 18.0164 40.539 18.197C41.8013 18.558 42.6832 19.1784 43.1599 20.0409C43.4999 20.656 43.61 21.33 43.6178 21.9242C42.9638 21.6839 42.2685 21.5535 41.57 21.5535Z" fill="#5A2E91"/>
<path d="M31.707 13.4391C31.0167 13.4391 30.457 13.9988 30.457 14.6891C30.457 15.3795 31.0167 15.9391 31.707 15.9391C33.0764 15.9391 34.2105 16.9636 34.345 18.3221C34.4089 18.9673 34.9524 19.4491 35.5874 19.4491C35.6285 19.4491 35.6702 19.447 35.7119 19.443C36.3989 19.375 36.9008 18.763 36.8328 18.076C36.5713 15.4325 34.3677 13.4391 31.707 13.4391Z" fill="#5A2E91"/>
<path d="M15.6123 13.4391C12.9565 13.4391 10.753 15.4316 10.4868 18.0738C10.4177 18.7606 10.9185 19.3735 11.6052 19.4428C11.6478 19.447 11.6901 19.4491 11.7321 19.4491C12.3661 19.4491 12.9093 18.9686 12.9742 18.3244C13.1112 16.9645 14.2453 15.9391 15.6123 15.9391C16.3027 15.9391 16.8623 15.3795 16.8623 14.6891C16.8623 13.9988 16.3027 13.4391 15.6123 13.4391Z" fill="#5A2E91"/>
<path d="M27.0657 8.1854C25.01 6.5049 22.0426 6.65515 20.163 8.53502C19.6748 9.02315 19.6748 9.81465 20.163 10.3028C20.4071 10.5469 20.727 10.6689 21.0468 10.6689C21.3667 10.6689 21.6867 10.5468 21.9307 10.3028C22.8987 9.33477 24.426 9.25665 25.4835 10.121C26.0178 10.5579 26.8052 10.4789 27.2423 9.9444C27.6792 9.4099 27.6001 8.6224 27.0657 8.1854Z" fill="#5A2E91"/>
<path d="M44.1289 42.3295C43.4387 42.3295 42.8789 42.8927 42.8789 43.583C42.8789 44.2734 43.4385 44.833 44.1289 44.833C44.8193 44.833 45.3789 44.2734 45.3789 43.583V43.5759C45.3788 42.8857 44.8192 42.3295 44.1289 42.3295Z" fill="#5A2E91"/>
</g>
<defs>
<clipPath id="clip0">
<rect width="64" height="64" fill="white"/>
</clipPath>
</defs>
</svg>

<svg width="67" height="64" fill="none" xmlns="http://www.w3.org/2000/svg"><path fill="#715F7A" d="M67 53v10H10V53z"/><g clip-path="url(#clip0)" fill="#5A2E91"><path d="M63.853 54.092a4.603 4.603 0 00-2.122-2.835 4.649 4.649 0 00-3.397-.533 6.075 6.075 0 00-8.904 1.72 6.098 6.098 0 00.431 6.828 4.614 4.614 0 002.27 4.08 4.631 4.631 0 006.966-3.492 4.642 4.642 0 004.253-2.261 4.593 4.593 0 00.503-3.507zm-2.653 2.23a2.13 2.13 0 01-2.406.966 1.25 1.25 0 00-1.33.438 3.56 3.56 0 01-.439.47 1.25 1.25 0 00-.41 1.021 2.13 2.13 0 11-4.23-.173 1.25 1.25 0 00-.328-1.05 3.582 3.582 0 01-.477-4.274 3.565 3.565 0 013.07-1.742 3.561 3.561 0 012.514 1.038c.36.355.898.458 1.364.262a2.117 2.117 0 011.925.128c.49.29.837.754.978 1.305a2.11 2.11 0 01-.23 1.61zm-8.514-18.358a5.694 5.694 0 005.628 6.519 5.693 5.693 0 005.684-5.688 5.674 5.674 0 00-3.055-5.047 5.039 5.039 0 00-5.02-4.672 5.038 5.038 0 00-5.032 5.033 5.04 5.04 0 001.795 3.855zm3.237-6.388a2.535 2.535 0 012.513 2.845 1.25 1.25 0 00.856 1.337 3.19 3.19 0 01-.978 6.224 3.192 3.192 0 01-3.034-4.172 1.25 1.25 0 00-.583-1.483 2.535 2.535 0 011.226-4.751zm-9.944-8.077c.199-1.084.32-2.946-.631-4.668-.658-1.19-1.696-2.088-3.094-2.678a7.597 7.597 0 00-3.492-6.864A7.58 7.58 0 0031.28 3.09c-.26 0-.52.013-.777.04A9.087 9.087 0 0023.659.002a9.096 9.096 0 00-6.844 3.128 7.648 7.648 0 00-.778-.04 7.58 7.58 0 00-7.48 6.199 7.596 7.596 0 00-3.49 6.863c-1.408.594-2.45 1.5-3.108 2.703-.94 1.72-.808 3.59-.616 4.643l-.043.045C.318 24.65-.132 26.028.034 27.426l3.825 32.591c.27 2.307 2.003 3.981 4.12 3.981h31.363c2.116 0 3.848-1.674 4.118-3.98L44.717 49.3a1.25 1.25 0 10-2.483-.291l-1.257 10.718c-.1.853-.654 1.771-1.635 1.771h-3.674l1.15-14.734h.69c1.046 0 1.898-.85 1.898-1.895v-7.877a1.9 1.9 0 00-1.674-1.884l.604-7.73.001-.05.003-.048a3.232 3.232 0 013.23-3.227c.975 0 1.94.43 2.58 1.148.355.4.757 1.06.655 1.933l-1.26 10.728a1.25 1.25 0 002.482.292l1.261-10.729c.164-1.4-.288-2.78-1.271-3.886l-.038-.04zm-38 37.999c-.982 0-1.537-.918-1.637-1.772L2.516 27.133c-.103-.871.298-1.53.653-1.93a3.5 3.5 0 012.583-1.15 3.23 3.23 0 013.227 3.227l.002.048.001.05.605 7.73c-.94.112-1.67.913-1.67 1.884v7.877c0 1.045.849 1.895 1.894 1.895h.69l1.153 14.734H7.98zm6.182 0l-1.153-14.735h5.412l.37 14.735h-4.63zm11.867 0H21.29l-.37-14.735h5.477l-.369 14.735zm7.132 0h-4.63l.37-14.735h5.412l-1.15 14.735zm3.746-17.234h-26.49v-6.67h26.49v6.67zm-18.779-9.17h-6.034l-.613-7.85a3.23 3.23 0 013.226-3.19 3.23 3.23 0 013.226 3.226l.001.016v.015l.194 7.783zm2.306-7.822a3.23 3.23 0 013.226-3.219 3.23 3.23 0 013.227 3.219l-.196 7.822h-6.062l-.195-7.822zm8.952.024l.001-.016a3.23 3.23 0 013.227-3.227 3.23 3.23 0 013.226 3.19l-.614 7.85h-6.034l.195-7.782v-.015zm12.185-5.742c-1.811 0-3.43.844-4.48 2.16a5.72 5.72 0 00-8.954-.001 5.72 5.72 0 00-8.954 0 5.72 5.72 0 00-8.953 0 5.72 5.72 0 00-4.477-2.16c-.7 0-1.395.131-2.05.371.008-.588.116-1.258.45-1.87.476-.87 1.36-1.495 2.627-1.857a1.25 1.25 0 00.879-1.461 5.023 5.023 0 01-.104-1.037 5.105 5.105 0 012.736-4.53 1.25 1.25 0 00.662-.982 5.09 5.09 0 015.085-4.597c.353 0 .706.036 1.047.108a1.25 1.25 0 001.267-.488 6.588 6.588 0 015.308-2.708 6.578 6.578 0 015.307 2.707c.29.399.787.59 1.268.489a5.101 5.101 0 011.047-.108 5.09 5.09 0 015.085 4.597c.042.418.29.787.662.983a5.107 5.107 0 012.632 5.566 1.25 1.25 0 00.879 1.461c1.262.361 2.144.981 2.62 1.844.34.615.451 1.289.459 1.883a5.953 5.953 0 00-2.048-.37z"/><path d="M31.707 13.44a1.25 1.25 0 000 2.5 2.639 2.639 0 012.638 2.382 1.25 1.25 0 002.488-.246 5.13 5.13 0 00-5.126-4.637zm-16.095 0a5.136 5.136 0 00-5.125 4.634 1.25 1.25 0 002.487.25 2.643 2.643 0 012.638-2.385 1.25 1.25 0 100-2.5zm11.454-5.255a5.135 5.135 0 00-6.903.35 1.25 1.25 0 101.768 1.768 2.643 2.643 0 013.552-.182 1.25 1.25 0 101.583-1.936zM44.129 42.33c-.69 0-1.25.563-1.25 1.253a1.25 1.25 0 102.5 0v-.007c0-.69-.56-1.246-1.25-1.246z"/></g><defs><clipPath id="clip0"><path fill="#fff" d="M0 0h64v64H0z"/></clipPath></defs></svg>
